react/assets/icons/plane.svg

<svg width="48px" height="48px" viewBox="0 0 24 24" fill="none" xmlns="http://www.w3.org/2000/svg" aria-labelledby="planeIconTitle" stroke-linecap="square" stroke-linejoin="miter"> <title id="planeIconTitle">Plane</title> <path d="M18.3937 4.3638L14 7L6 5L5 6L10.5 10.5L8 14H5L4 15L6.5 16.5L7.5 17.5L9 20L10 19V16L13.5 13.5L18 19L19 18L17 10L19.6362 5.60634C19.85 5.24999 19.7939 4.79385 19.5 4.5C19.2061 4.20615 18.75 4.14999 18.3937 4.3638Z"/> </svg>

<svg width="48" height="48" viewBox="0 0 24 24" fill="none" xmlns="http://www.w3.org/2000/svg" aria-labelledby="planeIconTitle" stroke-linecap="square"><path d="M18.394 4.364L14 7 6 5 5 6l5.5 4.5L8 14H5l-1 1 2.5 1.5 1 1L9 20l1-1v-3l3.5-2.5L18 19l1-1-2-8 2.636-4.394a.906.906 0 00-1.242-1.242z"/></svg>
